packages/2018/src/assets/cloud.svg

<?xml version="1.0" encoding="UTF-8"?>
<svg width="100px" height="100px" viewBox="0 0 100 100" version="1.1" xmlns="http://www.w3.org/2000/svg" xmlns:xlink="http://www.w3.org/1999/xlink">
    <!-- Generator: Sketch 57.1 (83088) - https://sketch.com -->
    <title>Continuous Cloud Deployment</title>
    <desc>Created with Sketch.</desc>
    <g id="Continuous-Cloud-Deployment" stroke="none" stroke-width="1" fill="none" fill-rule="evenodd">
        <g id="002-cloud" transform="translate(13.000000, 23.000000)" fill-rule="nonzero" stroke="#1E62BD" stroke-linejoin="round" stroke-width="2">
            <path d="M11.0182966,19.6161656 C8.77551872,11.5040631 13.1228771,2.90289124 21.1751218,-0.0180013652 C29.3096246,-2.96873246 38.2647278,0.950164726 41.6767408,8.7680061 C44.9039135,7.59432361 48.4916821,7.79889007 51.5810068,9.36626073 C54.6956173,10.9461455 56.990321,13.7509685 57.9330779,17.0810116 C58.6042052,16.9897924 59.2816929,16.9439773 59.9605925,16.9439773 C68.2661118,16.9439773 75,23.6721931 75,31.9719887 C75,40.2717843 68.2661119,47 59.9605925,47 L12.735521,46.9999987 C5.22681512,46.9879119 -0.885521668,40.9622276 -0.998434461,33.4596157 C-1.10409221,26.397669 4.14284872,20.4836673 11.0182966,19.6161656 Z" id="Path"></path>
        </g>
        <g id="Group" opacity="0.864002046" transform="translate(38.000000, 41.000000)" fill="#EE495C" fill-rule="nonzero">
            <path d="M10,0 C7.37311705,-0.00698045762 4.8524809,0.989544001 3,2.76746169 L6.3863109,6 C8.3824211,4.09559208 11.6175789,4.09559208 13.6136891,6 L17,2.76746169 C15.1475191,0.989544001 12.6268829,-0.00698045762 10,0 L10,0 Z" id="Path" opacity="0.576636905"></path>
            <path d="M9.960961,20 C5.93270455,20.0042333 2.29932122,17.5783195 0.757740427,13.8552458 C-0.783840367,10.132172 0.0705671936,5.84657776 2.921922,3 L6.32711836,6.40653375 C4.40012088,8.42740505 4.43771543,11.617495 6.41180181,13.5923567 C8.38588819,15.5672184 11.5747257,15.6048277 13.5948036,13.6770734 L17,17.0836072 C15.1348728,18.9537645 12.6016865,20.0033036 9.960961,20 L9.960961,20 Z" id="Path"></path>
        </g>
        <path d="" id="Path-3" stroke="#979797"></path>
        <path d="" id="Path-4" stroke="#979797"></path>
        <path d="" id="Path-5" stroke="#979797"></path>
    </g>
</svg>

<?xml version="1.0" encoding="utf-8"?>
<!-- Generator: Adobe Illustrator 23.1.1, SVG Export Plug-In . SVG Version: 6.00 Build 0)  -->
<svg version="1.1" id="Layer_1" xmlns="http://www.w3.org/2000/svg" xmlns:xlink="http://www.w3.org/1999/xlink" x="0px" y="0px"
	 viewBox="0 0 100 100" style="enable-background:new 0 0 100 100;" xml:space="preserve">
<style type="text/css">
	.st0{fill:none;stroke:#000000;stroke-width:3;stroke-linejoin:round;}
	.st1{opacity:0.864;}
	.st2{opacity:0.5766;fill:#EE495C;enable-background:new    ;}
	.st3{fill:#EE495C;}
</style>
<title>Continuous Cloud Deployment</title>
<desc>Created with Sketch.</desc>
<g id="Continuous-Cloud-Deployment">
	<g transform="translate(13.000000, 23.000000)">
		<path id="Path" class="st0" d="M11,19.6C8.8,11.5,13.1,2.9,21.2,0c8.1-3,17.1,1,20.5,8.8c3.2-1.2,6.8-1,9.9,0.6s5.4,4.4,6.4,7.7
			c0.7-0.1,1.3-0.1,2-0.1c8.3,0,15,6.7,15,15s-6.7,15-15,15H12.7C5.2,47-0.9,41-1,33.5C-1.1,26.4,4.1,20.5,11,19.6z"/>
	</g>
	<g id="Group" transform="translate(38.000000, 41.000000)" class="st1">
		<path class="st2" d="M10,0C7.4,0,4.9,1,3,2.8L6.4,6c2-1.9,5.2-1.9,7.2,0L17,2.8C15.1,1,12.6,0,10,0L10,0z"/>
		<path class="st3" d="M10,20c-4,0-7.7-2.4-9.2-6.1S0.1,5.8,2.9,3l3.4,3.4c-1.9,2-1.9,5.2,0.1,7.2s5.2,2,7.2,0.1l3.4,3.4
			C15.1,19,12.6,20,10,20L10,20z"/>
	</g>
	<path id="Path-3" class="st3" d="M0,0"/>
	<path id="Path-4" class="st3" d="M0,0"/>
	<path id="Path-5" class="st3" d="M0,0"/>
</g>
<circle cx="33.1" cy="42.6" r="1.5"/>
<circle cx="25.4" cy="40.2" r="1.5"/>
<circle cx="37.1" cy="34.9" r="1.5"/>
<circle cx="30.9" cy="35.7" r="1.5"/>
<circle cx="30.1" cy="29.3" r="1.5"/>
<circle cx="35.9" cy="28" r="1.5"/>
<circle cx="47.6" cy="31.2" r="1.5"/>
<circle cx="39.1" cy="23.5" r="1.5"/>
<circle cx="45.3" cy="25" r="1.5"/>
<circle cx="52.3" cy="34.9" r="1.5"/>
<circle cx="42.5" cy="32.7" r="1.5"/>
<circle cx="32.4" cy="51.5" r="1.5"/>
<circle cx="27.9" cy="47" r="1.5"/>
<circle cx="20.8" cy="46" r="1.5"/>
<circle cx="20.3" cy="51.5" r="1.5"/>
<circle cx="20.3" cy="57" r="1.5"/>
<circle cx="23.3" cy="61.7" r="1.5"/>
<circle cx="26.4" cy="54.9" r="1.5"/>
<circle cx="31.6" cy="57.2" r="1.5"/>
<circle cx="14.3" cy="56" r="1.5"/>
<circle cx="21.5" cy="67.4" r="1.5"/>
<circle cx="29.4" cy="63.4" r="1.5"/>
<circle cx="29.4" cy="69.3" r="1.5"/>
<circle cx="35.6" cy="63.4" r="1.5"/>
<circle cx="43.5" cy="65.9" r="1.5"/>
<circle cx="50.1" cy="65.9" r="1.5"/>
<circle cx="58.2" cy="65.9" r="1.5"/>
<circle cx="59.2" cy="60.2" r="1.5"/>
<circle cx="66.7" cy="37.2" r="1.5"/>
<circle cx="56.6" cy="37.9" r="1.5"/>
<circle cx="59.2" cy="32.7" r="1.5"/>
<circle cx="64.4" cy="48.5" r="1.5"/>
<circle cx="62.4" cy="42.1" r="1.5"/>
<circle cx="70.2" cy="44" r="1.5"/>
<circle cx="64.4" cy="56.4" r="1.5"/>
<circle cx="62.9" cy="68.1" r="1.5"/>
<circle cx="65.9" cy="62.2" r="1.5"/>
<circle cx="70.2" cy="65.9" r="1.5"/>
<circle cx="69.7" cy="54.3" r="1.5"/>
<circle cx="73.2" cy="48.5" r="1.5"/>
<circle cx="76.2" cy="43.1" r="1.5"/>
<circle cx="76.8" cy="54" r="1.5"/>
<circle cx="72.7" cy="60.2" r="1.5"/>
<circle cx="75.3" cy="68.9" r="1.5"/>
<circle cx="78.3" cy="59.2" r="1.5"/>
<circle cx="80.3" cy="64.4" r="1.5"/>
<circle cx="83.3" cy="58.7" r="1.5"/>
<circle cx="81.3" cy="50" r="1.5"/>
</svg>
